packages/dnb-eufemia/assets/icons/ref_number.svg

<svg width="16" height="16" viewBox="0 0 16 16" fill="none" xmlns="http://www.w3.org/2000/svg">
<path fill-rule="evenodd" clip-rule="evenodd" d="M2.25 1.75C1.2835 1.75 0.5 2.5335 0.5 3.5V12.5446C0.5 13.5111 1.2835 14.2946 2.25 14.2946H13.7489C14.7154 14.2946 15.4989 13.5111 15.4989 12.5446V3.5C15.4989 2.5335 14.7154 1.75 13.7489 1.75H2.25ZM2 3.5C2 3.36193 2.11193 3.25 2.25 3.25H13.7489C13.887 3.25 13.9989 3.36193 13.9989 3.5V12.5446C13.9989 12.6826 13.887 12.7946 13.7489 12.7946H2.25C2.11193 12.7946 2 12.6826 2 12.5446V3.5ZM5.29622 10.2745H6.32951L5.44468 8.58797C5.9732 8.42169 6.27013 8.006 6.27013 7.39434C6.27013 6.58671 5.74754 6.11758 4.85084 6.11758H3.19401V10.2745H4.08478V8.67111H4.53016L5.29622 10.2745ZM4.08478 6.83019H4.70831C5.15964 6.83019 5.36748 7.00834 5.36748 7.39434C5.36748 7.78034 5.15964 7.95849 4.70831 7.95849H4.08478V6.83019ZM9.44747 6.83019V6.11758H6.89394V10.2745H9.44747V9.56188H7.78471V8.55828H9.20994V7.84566H7.78471V6.83019H9.44747ZM12.7589 6.11758V6.83019H11.0961V7.84566H12.5213V8.55828H11.0961V10.2745H10.2053V6.11758H12.7589Z" fill="black"/>
</svg>

<svg width="16" height="16" viewBox="0 0 16 16" fill="none" xmlns="http://www.w3.org/2000/svg"><path d="M13.749 2.5H2.25a1 1 0 0 0-1 1v9.045a1 1 0 0 0 1 1h11.499a1 1 0 0 0 1-1V3.5a1 1 0 0 0-1-1Z" stroke="#000" stroke-width="1.5"/><path d="M5.296 10.274H6.33l-.884-1.686c.528-.167.825-.582.825-1.194 0-.808-.522-1.277-1.42-1.277H3.195v4.157h.89V8.671h.446l.766 1.603ZM4.085 6.83h.623c.452 0 .66.178.66.564 0 .386-.208.564-.66.564h-.623V6.83Zm5.362 0v-.713H6.894v4.157h2.553v-.713H7.785V8.558H9.21v-.713H7.785V6.83h1.662Zm3.312 0v-.713h-2.554v4.157h.891V8.558h1.425v-.713h-1.425V6.83h1.663Z" fill="#000"/></svg>
